packages/foundations/assets/icons/functional/images/business & payment/shopping_cart_24.svg

<svg width="24" height="24" viewBox="0 0 24 24" fill="none" xmlns="http://www.w3.org/2000/svg">
<g clip-path="url(#clip0_184_139)">
<path fill-rule="evenodd" clip-rule="evenodd" d="M8.99811 19C9.68611 19 10.2481 19.563 10.2481 20.25C10.2481 20.938 9.68511 21.5 8.99811 21.5C8.31011 21.5 7.74811 20.937 7.74811 20.25C7.74811 19.562 8.31111 19 8.99811 19ZM17.4981 19C18.1861 19 18.7481 19.563 18.7481 20.25C18.7481 20.938 18.1851 21.5 17.4981 21.5C16.8101 21.5 16.2481 20.937 16.2481 20.25C16.2481 19.562 16.8111 19 17.4981 19ZM4.40411 2.5C5.71811 2.5 6.93611 3 7.24811 4.594H19.9981C21.0921 4.594 21.9361 5.594 21.7171 6.656L20.7481 10.656C20.641 11.1775 20.3716 11.6518 19.9786 12.011C19.5857 12.3703 19.0891 12.596 18.5601 12.656L8.90411 13.72L9.15411 15.095C9.18511 15.345 9.40411 15.532 9.62311 15.532H17.8731C18.4361 15.532 18.9041 15.97 18.9041 16.532C18.9041 17.064 18.4361 17.501 17.8731 17.501H9.62311C8.40411 17.501 7.34211 16.626 7.15411 15.407L5.37311 5.344C5.34135 5.10976 5.22557 4.89503 5.04732 4.73978C4.86907 4.58452 4.64049 4.49931 4.40411 4.5H3.24811C2.68511 4.5 2.24811 4.062 2.24811 3.5C2.24811 2.969 2.68611 2.5 3.24811 2.5H4.40411ZM19.5291 6.531H7.52911L8.49811 11.75L18.1861 10.656C18.4041 10.625 18.5921 10.469 18.6231 10.25L19.5291 6.531Z" fill="#1A1C1F"/>
</g>
<defs>
<clipPath id="clip0_184_139">
<rect width="24" height="24" fill="white"/>
</clipPath>
</defs>
</svg>

<svg xmlns="http://www.w3.org/2000/svg" width="24" height="24" fill="none"><g clip-path="url(#a)"><path fill="#1A1C1F" fill-rule="evenodd" d="M8.998 19c.688 0 1.25.563 1.25 1.25s-.563 1.25-1.25 1.25-1.25-.563-1.25-1.25S8.311 19 8.998 19m8.5 0c.688 0 1.25.563 1.25 1.25s-.563 1.25-1.25 1.25-1.25-.563-1.25-1.25.563-1.25 1.25-1.25M4.404 2.5c1.314 0 2.532.5 2.844 2.094h12.75c1.094 0 1.938 1 1.72 2.062l-.97 4a2.52 2.52 0 0 1-2.188 2L8.904 13.72l.25 1.375c.031.25.25.437.47.437h8.25c.562 0 1.03.438 1.03 1 0 .532-.468.969-1.03.969h-8.25c-1.22 0-2.282-.875-2.47-2.094L5.374 5.344a.975.975 0 0 0-.97-.844H3.248c-.563 0-1-.438-1-1 0-.531.438-1 1-1zM19.53 6.531h-12l.97 5.219 9.687-1.094c.218-.031.406-.187.437-.406z" clip-rule="evenodd"/></g><defs><clipPath id="a"><path fill="#fff" d="M0 0h24v24H0z"/></clipPath></defs></svg>
